X: 27372
T: Mo Ceol Sibh A Laochra
R: polka
M: 2/4
K: Adorian
EA AB|c2 Ac|B{c/B/}A GB|dB GA|
EA AB|c2 d2|(3efg dB|BA A:|
d|ea ag|ef ge|dB GB|AG E{G/E/}D|
ea ag|ef ga|ba gb|a2 ab|
c'b ag|ef ge|dB gd|BA AG|
EA AB|c2 d2|(3efg dB|BA A||

